icon-themes/breeze_svg/cmd/lc_menubar.svg

<svg viewBox="0 0 24 24" xmlns="http://www.w3.org/2000/svg"><path d="m4 4v5h11 5v-5h-5zm1 1h10 4v3h-4-10zm-1 5v10h11v-1h-10v-9zm15 0v5h1v-5zm-2 5v2h-2v1h2v2h1v-2h2v-1h-2v-2z" fill="#4d4d4d"/></svg>

<svg viewBox="0 0 24 24" xmlns="http://www.w3.org/2000/svg">
  <path
     style="fill:#4d4d4d"
     d="M 4 4 L 4 9 L 15 9 L 20 9 L 20 4 L 15 4 L 4 4 z M 5 5 L 15 5 L 19 5 L 19 8 L 15 8 L 5 8 L 5 5 z M 4 10 L 4 20 L 15 20 L 15 19 L 5 19 L 5 10 L 4 10 z M 19 10 L 19 15 L 20 15 L 20 10 L 19 10 z M 17 15 L 17 17 L 15 17 L 15 18 L 17 18 L 17 20 L 18 20 L 18 18 L 20 18 L 20 17 L 18 17 L 18 15 L 17 15 z " />
</svg>
